2/images/PSW-1.svg

<svg width="352" height="264" viewBox="0 0 352 264" fill="none" xmlns="http://www.w3.org/2000/svg">
<path d="M327.085 189.868C315.335 204.601 301.407 217.621 285.629 228.52C269.475 239.679 251.92 248.207 233.479 253.946C215.036 259.685 195.706 262.634 176.001 262.634C156.292 262.634 136.96 259.685 118.516 253.946C100.071 248.207 82.5163 239.679 66.3613 228.52C50.5833 217.621 36.6562 204.6 24.9062 189.866" stroke="#B2B2B2" stroke-width="2" stroke-linecap="round" stroke-linejoin="round"/>
<path d="M24.9062 73.7685C36.6562 59.0345 50.5833 46.0135 66.3613 35.1145C82.5153 23.9555 100.071 15.4275 118.515 9.68849C136.96 3.94949 156.292 1.00049 176.001 1.00049C195.706 1.00049 215.036 3.94949 233.478 9.68849C251.92 15.4275 269.474 23.9555 285.629 35.1145C301.407 46.0135 315.335 59.0335 327.085 73.7665" stroke="#B2B2B2" stroke-width="2" stroke-linecap="round" stroke-linejoin="round"/>
<path fill-rule="evenodd" clip-rule="evenodd" d="M349.695 125.001C351.435 129.371 351.435 134.264 349.695 138.634C322.206 207.636 254.8 256.405 176.001 256.405C97.1893 256.405 29.7823 207.634 2.30425 138.631C0.56525 134.263 0.56525 129.372 2.30425 125.003C29.7823 56 97.1893 7.22998 176.001 7.22998C254.8 7.22998 322.206 55.999 349.695 125.001Z" stroke="#1A1A1A" stroke-width="2" stroke-linecap="round" stroke-linejoin="round"/>
<path fill-rule="evenodd" clip-rule="evenodd" d="M197.801 131.817C197.801 119.775 188.039 110.014 175.998 110.014C163.956 110.014 154.195 119.775 154.195 131.817C154.195 143.858 163.956 153.62 175.998 153.62C188.039 153.62 197.801 143.858 197.801 131.817Z" stroke="#1A1A1A" stroke-width="2" stroke-linecap="round" stroke-linejoin="round"/>
<path fill-rule="evenodd" clip-rule="evenodd" d="M213.376 131.817C213.376 90.5322 196.643 57.0652 176 57.0652C155.357 57.0652 138.623 90.5322 138.623 131.817C138.623 173.102 155.357 206.569 176 206.569C196.643 206.569 213.376 173.102 213.376 131.817Z" stroke="#B2B2B2" stroke-width="2" stroke-linecap="round" stroke-linejoin="round"/>
<path fill-rule="evenodd" clip-rule="evenodd" d="M176 169.193C217.285 169.193 250.753 152.459 250.753 131.817C250.753 111.174 217.285 94.4412 176 94.4412C134.715 94.4412 101.246 111.174 101.246 131.817C101.246 152.459 134.715 169.193 176 169.193Z" stroke="#B2B2B2" stroke-width="2" stroke-linecap="round" stroke-linejoin="round"/>
<path fill-rule="evenodd" clip-rule="evenodd" d="M250.753 131.817C250.753 90.5322 217.285 57.0652 176 57.0652C134.715 57.0652 101.246 90.5322 101.246 131.817C101.246 173.102 134.715 206.569 176 206.569C217.285 206.569 250.753 173.102 250.753 131.817Z" stroke="#1A1A1A" stroke-width="2" stroke-linecap="round" stroke-linejoin="round"/>
<path d="M189.879 31.8174C202.865 33.6254 215.281 37.9494 226.467 44.4074C237.651 50.8644 247.605 59.4564 255.663 69.7974C263.723 80.1404 269.887 92.2334 273.493 105.693" stroke="#231F20" stroke-width="2" stroke-linecap="round" stroke-linejoin="round"/>
<path d="M162.121 231.817C149.136 230.009 136.719 225.685 125.534 219.227C114.35 212.77 104.395 204.178 96.3368 193.837C88.2778 183.494 82.1138 171.401 78.5078 157.941" stroke="#231F20" stroke-width="2" stroke-linecap="round" stroke-linejoin="round"/>
<path d="M239.918 38.4461L189.879 31.8171" stroke="#231F20" stroke-width="2" stroke-linecap="round" stroke-linejoin="round"/>
<path d="M112.082 225.188L162.121 231.817" stroke="#231F20" stroke-width="2" stroke-linecap="round" stroke-linejoin="round"/>
<path d="M258.922 187.728C262.517 182.408 265.611 176.723 268.142 170.741C270.672 164.759 272.637 158.48 273.969 151.97C275.301 145.46 276 138.72 276 131.817" stroke="#B2B2B2" stroke-width="2" stroke-linecap="round" stroke-linejoin="round"/>
<path d="M93.079 75.906C89.484 81.226 86.389 86.911 83.859 92.893C81.329 98.875 79.364 105.154 78.032 111.664C76.7 118.174 76 124.913 76 131.817" stroke="#B2B2B2" stroke-width="2" stroke-linecap="round" stroke-linejoin="round"/>
</svg>

<svg width="352" height="264" fill="none" xmlns="http://www.w3.org/2000/svg"><path d="M327.08 189.87a193.95 193.95 0 01-93.6 64.08 193.21 193.21 0 01-57.48 8.68c-19.7 0-39.04-2.94-57.48-8.68a193.93 193.93 0 01-93.61-64.08M24.9 73.77a193.93 193.93 0 0193.62-64.08A193.25 193.25 0 01176 1a192.12 192.12 0 01109.63 34.11 193.95 193.95 0 0141.45 38.66" stroke="#B2B2B2" stroke-width="2" stroke-linecap="round" stroke-linejoin="round"/><path clip-rule="evenodd" d="M349.7 125a18.46 18.46 0 010 13.63c-27.5 69-94.9 117.77-173.7 117.77-78.81 0-146.22-48.77-173.7-117.77a18.45 18.45 0 010-13.63C29.78 56 97.2 7.23 176 7.23 254.8 7.23 322.2 56 349.7 125z" stroke="#1A1A1A" stroke-width="2" stroke-linecap="round" stroke-linejoin="round"/><path clip-rule="evenodd" d="M197.8 131.82a21.8 21.8 0 10-43.6 0 21.8 21.8 0 0043.6 0z" stroke="#1A1A1A" stroke-width="2" stroke-linecap="round" stroke-linejoin="round"/><path clip-rule="evenodd" d="M213.38 131.82c0-41.29-16.74-74.75-37.38-74.75-20.64 0-37.38 33.46-37.38 74.75 0 41.28 16.74 74.75 37.38 74.75 20.64 0 37.38-33.47 37.38-74.75z" stroke="#B2B2B2" stroke-width="2" stroke-linecap="round" stroke-linejoin="round"/><path clip-rule="evenodd" d="M176 169.2c41.28 0 74.75-16.74 74.75-37.38 0-20.65-33.47-37.38-74.75-37.38s-74.75 16.73-74.75 37.38c0 20.64 33.47 37.37 74.75 37.37z" stroke="#B2B2B2" stroke-width="2" stroke-linecap="round" stroke-linejoin="round"/><path clip-rule="evenodd" d="M250.75 131.82a74.75 74.75 0 10-149.5 0 74.75 74.75 0 00149.5 0z" stroke="#1A1A1A" stroke-width="2" stroke-linecap="round" stroke-linejoin="round"/><path d="M189.88 31.82a101.1 101.1 0 0136.59 12.59 100.6 100.6 0 0147.03 61.29M162.12 231.82a101.09 101.09 0 01-36.59-12.6 100.61 100.61 0 01-47.03-61.29M239.92 38.45l-50.04-6.63M112.08 225.19l50.04 6.63" stroke="#231F20" stroke-width="2" stroke-linecap="round" stroke-linejoin="round"/><path d="M258.92 187.73a99.78 99.78 0 0015.05-35.76 100.46 100.46 0 002.03-20.15M93.08 75.9A99.7 99.7 0 0076 131.83" stroke="#B2B2B2" stroke-width="2" stroke-linecap="round" stroke-linejoin="round"/></svg>
